**kern	**kern
*part1	*part1
*staff2	*staff1
*I"Piano	*
*clefF4	*clefG2
*k[b-e-a-]	*k[b-e-a-]
=1	=1
8cL	8a-L
8e-	8cc
8dJ	8b-J
4c	4a-
8c	8e-
=	=
8dL	8fL
8f	8a-
8dJ	8fJ
4.c	4.e-
=	=
*^	*^
4A-	4E-	4cc	[2.a-
*v	*v	*	*
8r	8r	.
*^	*	*
4c	4E-	4ee-	.
*v	*v	*	*
8r	8r	.
=	=	=
*^	*	*
4d	4E-	4ff	2.a-_
*v	*v	*	*
8r	8r	.
*^	*	*
4c	4E-	4ee-	.
*v	*v	*	*
8r	8r	.
=	=	=
*^	*	*
!	!	!LO:TX:a:i:t=rall.	!
[2.e-	[2.E-	[2.b-	(4.a-]
.	.	.	4.g
=	=	=	=
[2.e-]	[2.E-]	[2.b-]	4.f
.	.	.	4.e-)
=:|!	=:|!	=:|!	=:|!
[8qqe-/]	[8qqE-\]	[8qqb-/]	.
2.e-]	2.E-]	2.b-]	(4.f
.	.	.	4.e-)
*v	*v	*	*
*	*v	*v
=||	=||
*-	*-
!!!system-decoration: {(s1,s2)}
